Numix-Light/16/status/indicator-keyboard-Gr-3.svg

<?xml version="1.0" encoding="UTF-8" standalone="no"?>
<svg
   xmlns:dc="http://purl.org/dc/elements/1.1/"
   xmlns:cc="http://creativecommons.org/ns#"
   xmlns:rdf="http://www.w3.org/1999/02/22-rdf-syntax-ns#"
   xmlns:svg="http://www.w3.org/2000/svg"
   xmlns="http://www.w3.org/2000/svg"
   xmlns:sodipodi="http://sodipodi.sourceforge.net/DTD/sodipodi-0.dtd"
   xmlns:inkscape="http://www.inkscape.org/namespaces/inkscape"
   viewBox="0 0 16 16"
   id="svg2"
   version="1.1"
   inkscape:version="0.91 r13725"
   sodipodi:docname="indicator-keyboard-Gr-3.svg">
  <metadata
     id="metadata14">
    <rdf:RDF>
      <cc:Work
         rdf:about="">
        <dc:format>image/svg+xml</dc:format>
        <dc:type
           rdf:resource="http://purl.org/dc/dcmitype/StillImage" />
      </cc:Work>
    </rdf:RDF>
  </metadata>
  <defs
     id="defs12" />
  <sodipodi:namedview
     pagecolor="#ffffff"
     bordercolor="#666666"
     borderopacity="1"
     objecttolerance="10"
     gridtolerance="10"
     guidetolerance="10"
     inkscape:pageopacity="0"
     inkscape:pageshadow="2"
     inkscape:window-width="640"
     inkscape:window-height="480"
     id="namedview10"
     showgrid="false"
     inkscape:zoom="14.75"
     inkscape:cx="8"
     inkscape:cy="8"
     inkscape:window-x="65"
     inkscape:window-y="24"
     inkscape:window-maximized="0"
     inkscape:current-layer="svg2" />
  <path
     style="fill:#353535;fill-opacity:1"
     d="M 1.5996094 0 C 0.71320937 2.9605947e-16 0 0.71320937 0 1.5996094 L 0 14.400391 C 2.9605947e-16 15.286791 0.71320937 16 1.5996094 16 L 14.400391 16 C 15.286791 16 16 15.286791 16 14.400391 L 16 1.5996094 C 16 0.71320937 15.286791 0 14.400391 0 L 1.5996094 0 z M 5.1621094 4.7246094 C 5.6241094 4.7246094 6.0046875 4.7749531 6.3046875 4.8769531 C 6.6046875 4.9729531 6.8248906 5.06625 6.9628906 5.15625 L 6.7558594 5.6777344 C 6.5878594 5.5577344 6.3602656 5.462625 6.0722656 5.390625 C 5.7842656 5.312625 5.4707656 5.2734375 5.1347656 5.2734375 C 4.8227656 5.2734375 4.5299063 5.3293594 4.2539062 5.4433594 C 3.9779063 5.5573594 3.7372031 5.7290313 3.5332031 5.9570312 C 3.3292031 6.1850312 3.166875 6.4667344 3.046875 6.8027344 C 2.932875 7.1387344 2.8769531 7.5286563 2.8769531 7.9726562 C 2.8769531 8.3866563 2.9254844 8.7616563 3.0214844 9.0976562 C 3.1174844 9.4276563 3.261125 9.713125 3.453125 9.953125 C 3.651125 10.187125 3.8936406 10.366188 4.1816406 10.492188 C 4.4696406 10.618187 4.8016875 10.681641 5.1796875 10.681641 C 5.4856875 10.681641 5.7413125 10.666719 5.9453125 10.636719 C 6.1553125 10.600719 6.2971406 10.567109 6.3691406 10.537109 L 6.3691406 8.1445312 L 6.9804688 8.1445312 L 6.9804688 10.925781 C 6.8664687 10.973781 6.6406875 11.033469 6.3046875 11.105469 C 5.9746875 11.183469 5.5680313 11.222656 5.0820312 11.222656 C 4.6740312 11.222656 4.2952656 11.149859 3.9472656 11.005859 C 3.5992656 10.861859 3.2970625 10.654766 3.0390625 10.384766 C 2.7870625 10.108765 2.5893125 9.7691875 2.4453125 9.3671875 C 2.3013125 8.9591875 2.2285156 8.4946563 2.2285156 7.9726562 C 2.2285156 7.4506563 2.3068906 6.9898906 2.4628906 6.5878906 C 2.6188906 6.1798906 2.8277969 5.8403125 3.0917969 5.5703125 C 3.3617969 5.2943125 3.6752969 5.0834531 4.0292969 4.9394531 C 4.3832969 4.7954531 4.7601094 4.7246094 5.1621094 4.7246094 z M 9.953125 6.3535156 C 10.145125 6.3535156 10.324187 6.3684375 10.492188 6.3984375 C 10.666187 6.4284375 10.785562 6.4582812 10.851562 6.4882812 L 10.736328 6.9921875 C 10.688328 6.9681875 10.5875 6.9439219 10.4375 6.9199219 C 10.2935 6.8899219 10.103281 6.875 9.8632812 6.875 C 9.6112812 6.875 9.406 6.8936875 9.25 6.9296875 C 9.1 6.9656875 9.001125 6.9955312 8.953125 7.0195312 L 8.953125 11.095703 L 8.3691406 11.095703 L 8.3691406 6.6582031 C 8.5191406 6.5922031 8.7262344 6.5269375 8.9902344 6.4609375 C 9.2542344 6.3889375 9.575125 6.3535156 9.953125 6.3535156 z M 12.402344 8.7539062 C 12.605144 8.7539062 12.779528 8.7793781 12.923828 8.8300781 C 13.072028 8.8807781 13.193516 8.953275 13.291016 9.046875 C 13.388516 9.136575 13.461013 9.2463 13.507812 9.375 C 13.554612 9.4997999 13.578125 9.6350031 13.578125 9.7832031 C 13.578125 10.021103 13.513466 10.217041 13.384766 10.369141 C 13.259966 10.517341 13.099291 10.625106 12.900391 10.691406 C 13.009591 10.718706 13.113444 10.759859 13.214844 10.818359 C 13.320144 10.872959 13.414194 10.945456 13.496094 11.035156 C 13.577994 11.120956 13.644612 11.226762 13.695312 11.351562 C 13.746012 11.476363 13.771484 11.623316 13.771484 11.791016 C 13.771484 11.962616 13.740134 12.119372 13.677734 12.263672 C 13.619234 12.407972 13.529103 12.535331 13.408203 12.644531 C 13.291203 12.749831 13.142284 12.834084 12.958984 12.896484 C 12.775684 12.954984 12.560153 12.984375 12.314453 12.984375 C 12.185753 12.984375 12.066231 12.974578 11.957031 12.955078 C 11.851731 12.939478 11.759634 12.919884 11.677734 12.896484 C 11.595834 12.873084 11.525297 12.849572 11.466797 12.826172 C 11.412197 12.802772 11.37105 12.783178 11.34375 12.767578 L 11.443359 12.427734 C 11.466759 12.443334 11.505947 12.462928 11.560547 12.486328 C 11.615147 12.509728 11.679806 12.533241 11.753906 12.556641 C 11.831906 12.576141 11.916166 12.593775 12.009766 12.609375 C 12.107266 12.624975 12.213072 12.632813 12.326172 12.632812 C 12.696672 12.632812 12.963147 12.556397 13.123047 12.404297 C 13.282947 12.248297 13.361328 12.040597 13.361328 11.779297 C 13.361328 11.607697 13.328019 11.464662 13.261719 11.351562 C 13.199319 11.238462 13.1131 11.148331 13 11.082031 C 12.8908 11.011831 12.761481 10.962847 12.613281 10.935547 C 12.468981 10.904347 12.314191 10.888672 12.150391 10.888672 L 12.091797 10.888672 L 12.091797 10.574219 L 12.226562 10.574219 C 12.331863 10.574219 12.439628 10.564422 12.548828 10.544922 C 12.661928 10.521522 12.763816 10.480375 12.853516 10.421875 C 12.947116 10.363375 13.023531 10.285 13.082031 10.1875 C 13.144431 10.09 13.173828 9.9646001 13.173828 9.8125 C 13.173828 9.6838 13.154228 9.5760281 13.111328 9.4863281 C 13.068428 9.3927281 13.009647 9.3182719 12.935547 9.2636719 C 12.865347 9.2090719 12.781094 9.1698844 12.683594 9.1464844 C 12.589994 9.1191844 12.490066 9.1054687 12.384766 9.1054688 C 12.174166 9.1054688 12.011531 9.1348594 11.894531 9.1933594 C 11.777531 9.2518594 11.681522 9.3067219 11.607422 9.3574219 L 11.443359 9.0585938 C 11.482359 9.0312937 11.531344 8.9999437 11.589844 8.9648438 C 11.652244 8.9297437 11.724741 8.8964344 11.806641 8.8652344 C 11.888541 8.8340344 11.976719 8.8085625 12.074219 8.7890625 C 12.175619 8.7656625 12.285344 8.7539062 12.402344 8.7539062 z "
     id="path4" />
</svg>

<svg xmlns="http://www.w3.org/2000/svg" viewBox="0 0 16 16">
 <path d="m 1.6 0 c -0.886 0 -1.6 0.713 -1.6 1.6 l 0 12.801 c 0 0.886 0.713 1.6 1.6 1.6 l 12.801 0 c 0.886 0 1.6 -0.713 1.6 -1.6 l 0 -12.801 c 0 -0.886 -0.713 -1.6 -1.6 -1.6 l -12.801 0 z m 3.563 4.725 c 0.462 0 0.843 0.05 1.143 0.152 c 0.3 0.096 0.52 0.189 0.658 0.279 l -0.207 0.521 c -0.168 -0.12 -0.396 -0.215 -0.684 -0.287 c -0.288 -0.078 -0.601 -0.117 -0.938 -0.117 c -0.312 0 -0.605 0.056 -0.881 0.17 c -0.276 0.114 -0.517 0.286 -0.721 0.514 c -0.204 0.228 -0.366 0.51 -0.486 0.846 c -0.114 0.336 -0.17 0.726 -0.17 1.17 c 0 0.414 0.049 0.789 0.145 1.125 c 0.096 0.33 0.24 0.615 0.432 0.855 c 0.198 0.234 0.441 0.413 0.729 0.539 c 0.288 0.126 0.62 0.189 0.998 0.189 c 0.306 0 0.562 -0.015 0.766 -0.045 c 0.21 -0.036 0.352 -0.07 0.424 -0.1 l 0 -2.393 l 0.611 0 l 0 2.781 c -0.114 0.048 -0.34 0.108 -0.676 0.18 c -0.33 0.078 -0.737 0.117 -1.223 0.117 c -0.408 0 -0.787 -0.073 -1.135 -0.217 c -0.348 -0.144 -0.65 -0.351 -0.908 -0.621 c -0.252 -0.276 -0.45 -0.616 -0.594 -1.018 c -0.144 -0.408 -0.217 -0.873 -0.217 -1.395 c 0 -0.522 0.078 -0.983 0.234 -1.385 c 0.156 -0.408 0.365 -0.748 0.629 -1.018 c 0.27 -0.276 0.584 -0.487 0.938 -0.631 c 0.354 -0.144 0.731 -0.215 1.133 -0.215 z m 4.791 1.629 c 0.192 0 0.371 0.015 0.539 0.045 c 0.174 0.03 0.293 0.06 0.359 0.09 l -0.115 0.504 c -0.048 -0.024 -0.149 -0.048 -0.299 -0.072 c -0.144 -0.03 -0.334 -0.045 -0.574 -0.045 c -0.252 0 -0.457 0.019 -0.613 0.055 c -0.15 0.036 -0.249 0.066 -0.297 0.09 l 0 4.076 l -0.584 0 l 0 -4.437 c 0.15 -0.066 0.357 -0.131 0.621 -0.197 c 0.264 -0.072 0.585 -0.107 0.963 -0.107 z m 2.449 2.4 c 0.203 0 0.377 0.025 0.521 0.076 c 0.148 0.051 0.27 0.123 0.367 0.217 c 0.097 0.09 0.17 0.199 0.217 0.328 c 0.047 0.125 0.07 0.26 0.07 0.408 c 0 0.238 -0.065 0.434 -0.193 0.586 c -0.125 0.148 -0.285 0.256 -0.484 0.322 c 0.109 0.027 0.213 0.068 0.314 0.127 c 0.105 0.055 0.199 0.127 0.281 0.217 c 0.082 0.086 0.149 0.192 0.199 0.316 c 0.051 0.125 0.076 0.272 0.076 0.439 c 0 0.172 -0.031 0.328 -0.094 0.473 c -0.058 0.144 -0.149 0.272 -0.27 0.381 c -0.117 0.105 -0.266 0.19 -0.449 0.252 c -0.183 0.059 -0.399 0.088 -0.645 0.088 c -0.129 0 -0.248 -0.01 -0.357 -0.029 c -0.105 -0.016 -0.197 -0.035 -0.279 -0.059 c -0.082 -0.023 -0.152 -0.047 -0.211 -0.07 c -0.055 -0.023 -0.096 -0.043 -0.123 -0.059 l 0.1 -0.34 c 0.023 0.016 0.063 0.035 0.117 0.059 c 0.055 0.023 0.119 0.047 0.193 0.07 c 0.078 0.019 0.162 0.037 0.256 0.053 c 0.097 0.016 0.203 0.023 0.316 0.023 c 0.37 0 0.637 -0.076 0.797 -0.229 c 0.16 -0.156 0.238 -0.364 0.238 -0.625 c 0 -0.172 -0.033 -0.315 -0.1 -0.428 c -0.062 -0.113 -0.149 -0.203 -0.262 -0.27 c -0.109 -0.07 -0.239 -0.119 -0.387 -0.146 c -0.144 -0.031 -0.299 -0.047 -0.463 -0.047 l -0.059 0 l 0 -0.314 l 0.135 0 c 0.105 0 0.213 -0.01 0.322 -0.029 c 0.113 -0.023 0.215 -0.065 0.305 -0.123 c 0.094 -0.059 0.17 -0.137 0.229 -0.234 c 0.062 -0.098 0.092 -0.223 0.092 -0.375 c 0 -0.129 -0.02 -0.236 -0.063 -0.326 c -0.043 -0.094 -0.102 -0.168 -0.176 -0.223 c -0.07 -0.055 -0.154 -0.094 -0.252 -0.117 c -0.094 -0.027 -0.194 -0.041 -0.299 -0.041 c -0.211 0 -0.373 0.029 -0.49 0.088 c -0.117 0.059 -0.213 0.113 -0.287 0.164 l -0.164 -0.299 c 0.039 -0.027 0.088 -0.059 0.146 -0.094 c 0.062 -0.035 0.135 -0.068 0.217 -0.1 c 0.082 -0.031 0.17 -0.057 0.268 -0.076 c 0.101 -0.023 0.211 -0.035 0.328 -0.035 z" style="fill:#353535;fill-opacity:1"/>
</svg>
